assets/home/Level_up.svg

<svg xmlns="http://www.w3.org/2000/svg" width="120" height="120" fill="none" xmlns:v="https://vecta.io/nano"><g fill-rule="evenodd"><path d="M35.059 103.337C20.088 94.693 10 78.516 10 60c0-27.596 22.404-50 50-50s50 22.404 50 50c0 18.493-10.063 34.654-25.005 43.305-2.389 1.383-3.205 4.445-1.822 6.833s4.444 3.204 6.832 1.821C107.932 101.58 120 82.188 120 60c0-33.115-26.885-60-60-60S0 26.885 0 60c0 22.214 12.097 41.626 30.059 51.997 2.39 1.38 5.451.559 6.831-1.83s.559-5.451-1.831-6.83z" fill="url(#A)"/><path d="M55 51.023V115c0 2.76 2.24 5 5 5s5-2.24 5-5V51.023c0-2.76-2.24-5-5-5s-5 2.24-5 5z" fill="url(#B)"/><path d="M43.274 70.779L60 54.696l16.726 16.083c1.989 1.913 5.157 1.851 7.07-.138s1.851-5.157-.139-7.07L63.466 44.156a5 5 0 0 0-6.932 0L36.343 63.571c-1.99 1.913-2.052 5.081-.139 7.07s5.081 2.051 7.07.138z" fill="url(#C)"/></g><defs><linearGradient id="A" x1="17" y1="18" x2="99" y2="105" gradientUnits="userSpaceOnUse"><stop stop-color="#ff0cf5"/><stop offset="1" stop-color="#0575e6"/></linearGradient><linearGradient id="B" x1="55" y1="35.5" x2="55" y2="116.5" gradientUnits="userSpaceOnUse"><stop stop-color="#a83afe"/><stop offset="1" stop-color="#6e59fe"/></linearGradient><linearGradient id="C" x1="57" y1="45" x2="80" y2="68" gradientUnits="userSpaceOnUse"><stop stop-color="#a83afe"/><stop offset="1" stop-color="#6e59fe"/></linearGradient></defs></svg>

<svg width="120" height="120" viewBox="0 0 120 120" fill="none" xmlns="http://www.w3.org/2000/svg">
<path fill-rule="evenodd" clip-rule="evenodd" d="M35.059 103.337C20.088 94.693 10 78.516 10 60C10 32.404 32.404 10 60 10C87.596 10 110 32.404 110 60C110 78.493 99.937 94.654 84.995 103.305C82.606 104.688 81.79 107.75 83.173 110.138C84.556 112.526 87.617 113.342 90.005 111.959C107.932 101.58 120 82.188 120 60C120 26.885 93.115 0 60 0C26.885 0 0 26.885 0 60C0 82.214 12.097 101.626 30.059 111.997C32.449 113.377 35.51 112.556 36.89 110.167C38.269 107.777 37.449 104.716 35.059 103.337Z" fill="url(#paint0_linear_5_166)"/>
<path fill-rule="evenodd" clip-rule="evenodd" d="M55 51.0229V115C55 117.76 57.24 120 60 120C62.76 120 65 117.76 65 115V51.0229C65 48.2629 62.76 46.0229 60 46.0229C57.24 46.0229 55 48.2629 55 51.0229Z" fill="url(#paint1_linear_5_166)"/>
<path fill-rule="evenodd" clip-rule="evenodd" d="M43.274 70.779L60 54.696L76.726 70.779C78.715 72.692 81.883 72.63 83.796 70.641C85.709 68.652 85.647 65.484 83.657 63.571L63.466 44.156C61.53 42.295 58.47 42.295 56.534 44.156L36.343 63.571C34.353 65.484 34.291 68.652 36.204 70.641C38.117 72.63 41.285 72.692 43.274 70.779Z" fill="url(#paint2_linear_5_166)"/>
<defs>
<linearGradient id="paint0_linear_5_166" x1="17" y1="18" x2="99" y2="105" gradientUnits="userSpaceOnUse">
<stop stop-color="#FF0CF5"/>
<stop offset="1" stop-color="#0575E6"/>
</linearGradient>
<linearGradient id="paint1_linear_5_166" x1="55" y1="35.5" x2="55" y2="116.5" gradientUnits="userSpaceOnUse">
<stop stop-color="#A83AFE"/>
<stop offset="1" stop-color="#6E59FE"/>
</linearGradient>
<linearGradient id="paint2_linear_5_166" x1="57" y1="45" x2="80" y2="68" gradientUnits="userSpaceOnUse">
<stop stop-color="#A83AFE"/>
<stop offset="1" stop-color="#6E59FE"/>
</linearGradient>
</defs>
</svg>
